assets/icons/ovaldark.svg

<svg width="18" height="18" viewBox="0 0 18 18" fill="none" xmlns="http://www.w3.org/2000/svg">
<path d="M6.46875 9C6.46875 9.15533 6.34283 9.28125 6.1875 9.28125C6.03217 9.28125 5.90625 9.15533 5.90625 9C5.90625 8.84467 6.03217 8.71875 6.1875 8.71875C6.34283 8.71875 6.46875 8.84467 6.46875 9ZM6.46875 9H6.1875M9.28125 9C9.28125 9.15533 9.15533 9.28125 9 9.28125C8.84467 9.28125 8.71875 9.15533 8.71875 9C8.71875 8.84467 8.84467 8.71875 9 8.71875C9.15533 8.71875 9.28125 8.84467 9.28125 9ZM9.28125 9H9M12.0938 9C12.0938 9.15533 11.9678 9.28125 11.8125 9.28125C11.6572 9.28125 11.5312 9.15533 11.5312 9C11.5312 8.84467 11.6572 8.71875 11.8125 8.71875C11.9678 8.71875 12.0938 8.84467 12.0938 9ZM12.0938 9H11.8125M15.75 9C15.75 12.4173 12.7279 15.1875 9 15.1875C8.3344 15.1875 7.6913 15.0992 7.08388 14.9347C6.35262 15.4484 5.46151 15.75 4.5 15.75C4.35059 15.75 4.20282 15.7427 4.05725 15.7285C3.9375 15.7168 3.81885 15.7004 3.70184 15.6795C4.06449 15.2515 4.32208 14.732 4.43541 14.1606C4.5034 13.8178 4.33553 13.4849 4.08513 13.2412C2.94728 12.1336 2.25 10.6415 2.25 9C2.25 5.58274 5.27208 2.8125 9 2.8125C12.7279 2.8125 15.75 5.58274 15.75 9Z" stroke="#9AA3AF" stroke-width="1.125" stroke-linecap="round" stroke-linejoin="round"/>
</svg>

<svg width="18" height="18" viewBox="0 0 18 18" fill="none" xmlns="http://www.w3.org/2000/svg"><path d="M6.47 9a.28.28 0 1 1-.56 0 .28.28 0 0 1 .56 0m0 0h-.28m3.1 0a.28.28 0 1 1-.57 0 .28.28 0 0 1 .56 0m0 0H9m3.1 0a.28.28 0 1 1-.57 0 .28.28 0 0 1 .56 0m0 0h-.29m3.94 0c0 3.42-3.02 6.19-6.75 6.19q-1-.01-1.92-.26a4.5 4.5 0 0 1-3.38.75q.55-.65.74-1.52c.06-.34-.1-.68-.35-.92A6 6 0 0 1 2.25 9c0-3.42 3.02-6.19 6.75-6.19S15.75 5.58 15.75 9" stroke="#9AA3AF" stroke-width="1.125" stroke-linecap="round" stroke-linejoin="round"/></svg>
